svg/azure-acr.svg

<?xml version="1.0" encoding="UTF-8"?>
<svg xmlns="http://www.w3.org/2000/svg" xmlns:xlink="http://www.w3.org/1999/xlink" width="35.458" height="32" viewBox="0 0 35.458 32">
<defs>
<linearGradient id="linear-pattern-0" gradientUnits="userSpaceOnUse" x1="8.637" y1="-1.991" x2="8.637" y2="16.739" gradientTransform="matrix(1.90024, 0, 0, 1.90024, 0.684, -2.28)">
<stop offset="0" stop-color="rgb(36.862746%, 62.7451%, 93.725491%)" stop-opacity="1"/>
<stop offset="1" stop-color="rgb(0%, 47.058824%, 83.137256%)" stop-opacity="1"/>
</linearGradient>
<linearGradient id="linear-pattern-1" gradientUnits="userSpaceOnUse" x1="12.96" y1="8.561" x2="12.96" y2="6.141" gradientTransform="matrix(1.90024, 0, 0, -1.90024, 0.684, 35.723999)">
<stop offset="0" stop-color="rgb(20%, 19.215687%, 19.607843%)" stop-opacity="1"/>
<stop offset="1" stop-color="rgb(35.686275%, 35.294119%, 36.078432%)" stop-opacity="1"/>
</linearGradient>
</defs>
<path fill-rule="nonzero" fill="url(#linear-pattern-0)" d="M 14.804688 13.261719 L 19.722656 10.269531 L 33.507812 15.460938 C 33.207031 14.121094 32.515625 12.902344 31.523438 11.953125 L 31.507812 11.859375 C 30.351562 10.738281 28.878906 9.996094 27.289062 9.730469 C 27.070312 4.589844 22.734375 0.59375 17.597656 0.796875 C 13.515625 0.722656 9.832031 3.226562 8.398438 7.050781 C 4.070312 7.578125 0.785156 11.203125 0.683594 15.5625 C 0.878906 20.503906 5.03125 24.359375 9.976562 24.191406 L 14.804688 24.191406 Z M 14.804688 13.261719 "/>
<path fill-rule="nonzero" fill="rgb(46.27451%, 46.27451%, 46.27451%)" fill-opacity="1" d="M 19.820312 11.324219 L 19.839844 19.457031 L 34.871094 22.648438 L 34.871094 16.984375 Z M 19.820312 11.324219 "/>
<path fill-rule="nonzero" fill="rgb(60.000002%, 60.000002%, 60.000002%)" fill-opacity="1" d="M 19.820312 11.324219 L 15.753906 13.792969 L 15.753906 21.355469 L 19.839844 19.457031 "/>
<path fill-rule="nonzero" fill="rgb(63.921571%, 63.921571%, 63.921571%)" fill-opacity="1" d="M 26.679688 19.570312 L 28.046875 19.949219 L 28.046875 15.523438 L 26.679688 15.046875 Z M 25.3125 14.609375 L 23.941406 14.117188 L 23.941406 18.847656 L 25.3125 19.226562 Z M 29.414062 20.3125 L 30.746094 20.671875 L 30.785156 16.453125 L 29.414062 16 Z M 21.226562 18.144531 L 22.59375 18.488281 L 22.59375 13.679688 L 21.226562 13.222656 Z M 33.5 17.386719 L 32.132812 16.910156 L 32.132812 21.035156 L 33.5 21.414062 Z M 33.5 17.386719 "/>
<path fill-rule="nonzero" fill="rgb(70.19608%, 70.19608%, 70.19608%)" fill-opacity="1" d="M 17.140625 19.324219 L 16.457031 19.722656 L 16.457031 14.34375 L 17.140625 13.984375 Z M 18.488281 13.203125 L 17.785156 13.660156 L 17.785156 18.886719 L 18.488281 18.507812 Z M 18.488281 13.203125 "/>
<path fill-rule="nonzero" fill="url(#linear-pattern-1)" d="M 34.871094 22.648438 L 30.765625 24.054688 L 15.753906 21.355469 L 19.839844 19.457031 Z M 34.871094 22.648438 "/>
<path fill-rule="nonzero" fill="rgb(46.27451%, 46.27451%, 46.27451%)" fill-opacity="1" d="M 34.871094 28.445312 L 19.761719 31.3125 L 19.839844 20.691406 L 34.871094 23.484375 Z M 34.871094 28.445312 "/>
<path fill-rule="nonzero" fill="rgb(63.921571%, 63.921571%, 63.921571%)" fill-opacity="1" d="M 21.226562 29.566406 L 21.226562 22.820312 L 22.59375 22.992188 L 22.59375 29.335938 Z M 25.3125 28.882812 L 23.941406 29.128906 L 23.941406 23.160156 L 25.3125 23.371094 Z M 26.679688 28.671875 L 26.679688 23.503906 L 28.046875 23.675781 L 28.046875 28.425781 Z M 30.765625 27.949219 L 29.414062 28.199219 L 29.414062 23.847656 L 30.765625 24.054688 Z M 33.539062 27.511719 L 32.132812 27.761719 L 32.132812 24.1875 L 33.445312 24.359375 Z M 33.539062 27.511719 "/>
<path fill-rule="nonzero" fill="rgb(60.000002%, 60.000002%, 60.000002%)" fill-opacity="1" d="M 15.753906 28.882812 L 15.753906 22.6875 L 19.859375 20.789062 L 19.859375 31.429688 Z M 15.753906 28.882812 "/>
<path fill-rule="nonzero" fill="rgb(70.19608%, 70.19608%, 70.19608%)" fill-opacity="1" d="M 17.046875 28.863281 L 16.4375 28.558594 L 16.4375 23.3125 L 17.046875 23.027344 Z M 18.507812 22.308594 L 17.785156 22.667969 L 17.785156 29.28125 L 18.488281 29.640625 L 18.488281 22.308594 Z M 18.507812 22.308594 "/>
</svg>

<svg role="img" viewBox="0 0 35.458 32" xmlns="http://www.w3.org/2000/svg"><defs><linearGradient gradientTransform="translate(.684 -2.28)scale(1.90024)" gradientUnits="userSpaceOnUse" id="azure-acr_svg__a" x1="8.637" x2="8.637" y1="-1.991" y2="16.739"><stop offset="0" stop-color="rgb(36.862746%, 62.7451%, 93.725491%)"/><stop offset="1" stop-color="rgb(0%, 47.058824%, 83.137256%)"/></linearGradient><linearGradient gradientTransform="matrix(1.90024 0 0 -1.90024 .684 35.724)" gradientUnits="userSpaceOnUse" id="azure-acr_svg__b" x1="12.96" x2="12.96" y1="8.561" y2="6.141"><stop offset="0" stop-color="rgb(20%, 19.215687%, 19.607843%)"/><stop offset="1" stop-color="rgb(35.686275%, 35.294119%, 36.078432%)"/></linearGradient></defs><path d="m14.805 13.262 4.918-2.992 13.785 5.19a6.97 6.97 0 0 0-1.985-3.507l-.015-.094a7.94 7.94 0 0 0-4.219-2.129C27.07 4.59 22.734.594 17.598.797a9.635 9.635 0 0 0-9.2 6.254 8.78 8.78 0 0 0-7.714 8.511c.195 4.942 4.347 8.797 9.293 8.63h4.828Zm0 0" fill="url(#azure-acr_svg__a)"/><path d="m19.82 11.324.02 8.133 15.031 3.191v-5.664Zm0 0" fill="rgb(46.27451%, 46.27451%, 46.27451%)"/><path d="m19.82 11.324-4.066 2.469v7.562l4.086-1.898" fill="rgb(60.000002%, 60.000002%, 60.000002%)"/><path d="m26.68 19.57 1.367.38v-4.427l-1.367-.476Zm-1.367-4.96-1.372-.493v4.73l1.372.38Zm4.101 5.703 1.332.359.04-4.219L29.413 16Zm-8.187-2.168 1.367.343V13.68l-1.367-.457Zm12.273-.758-1.367-.477v4.125l1.367.38Zm0 0" fill="rgb(63.921571%, 63.921571%, 63.921571%)"/><path d="m17.14 19.324-.683.399v-5.38l.684-.359Zm1.348-6.12-.703.456v5.227l.703-.38Zm0 0" fill="rgb(70.19608%, 70.19608%, 70.19608%)"/><path d="m34.871 22.648-4.105 1.407-15.012-2.7 4.086-1.898Zm0 0" fill="url(#azure-acr_svg__b)"/><path d="m34.871 28.445-15.11 2.867.079-10.62 15.031 2.792Zm0 0" fill="rgb(46.27451%, 46.27451%, 46.27451%)"/><path d="M21.227 29.566V22.82l1.367.172v6.344Zm4.085-.683-1.37.246V23.16l1.37.211Zm1.368-.211v-5.168l1.367.172v4.75Zm4.086-.723-1.352.25v-4.351l1.352.207Zm2.773-.437-1.406.25v-3.575l1.312.172Zm0 0" fill="rgb(63.921571%, 63.921571%, 63.921571%)"/><path d="M15.754 28.883v-6.195l4.105-1.899v10.64Zm0 0" fill="rgb(60.000002%, 60.000002%, 60.000002%)"/><path d="m17.047 28.863-.61-.304v-5.247l.61-.285Zm1.46-6.554-.722.359v6.613l.703.36v-7.332Zm0 0" fill="rgb(70.19608%, 70.19608%, 70.19608%)"/></svg>
